!!!SOCIAL_FUNCTION:	songs connected with legends
!!!PDT:	1929
!!!OTL: No_9_Song_Before_Emerging_from_Ashes_Hill.krn
!!!REG: Southwest
!!!LANG: Non-Tone
!!!LING_GROUP: Uto-Aztecan
**kern
*staff1
=1-
*clefF4
*k[b-e-a-d-g-c-]
*M2/4
4E-\
4B-\
=2||
*M3/4
2B-\
4B-\
=3||
*M2/4
4c-\
8B-\L
16G-\L
16F\JJ
=4
G-q/
2G-\
=5||
*M3/4
4F\
4r
4B-\
=6||
*M2/4
4c-\
4B-\
=7
4G-\
4F\
=8
4G-\
12F\L
12E-\
12C-\J
=9
16E-\LK
[8.E-\J
4E-\]
=10||
*M3/4
8C-/L
8BB-/J
4r
8E-/L
8C-/J
=11||
*M2/4
8.F\L
16G-\Jk
4E-\
=12||
*M3/4
2E-\
16C-/LL
16BB-/JJ
8r
=13
2E-\
8C-/L
8BB-/J
=14
4E-\
2E-\
=15||
*M2/4
[2E-\
=16||
4E-\]
4r
==:|!
*-
